X: 3423
T: The MAC DONALD'S MARCH
%R: march, reel
B: James Kerr "Merry Melodies" v.3 p.47 #423
Z: 2016 John Chambers <jc:trillian.mit.edu>
M: 2/4
L: 1/16
K: A
(eA) |\
c2(Bc) A2A2 | cAce a2(ef) | =g2(ae) g2(de) | =gdBA =GABG |\
c2(Bc) A2A2 | cAce a2(ef) | =gdBA =GABd | c2A2A2 :|
|: e2 |\
AAa2 =g2ea | =gefe a2(ef) | =g2(ae) g2(de) | =gdBA =GABG |\
AAa2 =gea2 | =gefe a2(ef) | =gdBA =GABd | c2A2A2 :|
|: E2 |\
ABcd eaec | ABcd (ec)A2 | =GABc d=gdB | =GABc (dB)G2 |\
ABcd eaea | =gefe a2(ef) | =gdBA =GABd | c2A2A2 :|

%%sep 1 1 500
%%sep 1 1 500

